assets/images/icons/types-of-rest/pair-of-mountains.svg

<?xml version="1.0" encoding="UTF-8"?>
<svg width="22px" height="21px" viewBox="0 0 22 21" version="1.1" xmlns="http://www.w3.org/2000/svg" xmlns:xlink="http://www.w3.org/1999/xlink">
    <!-- Generator: sketchtool 45 (43475) - http://www.bohemiancoding.com/sketch -->
    <title>6D05A15E-82F8-4414-AD7C-9B433E51780D</title>
    <desc>Created with sketchtool.</desc>
    <defs></defs>
    <g id="Page-1" stroke="none" stroke-width="1" fill="none" fill-rule="evenodd">
        <g id="главная_гайды" transform="translate(-921.000000, -658.000000)" fill-rule="nonzero" fill="#9AA7B4">
            <g id="Group-2-Copy-6" transform="translate(686.000000, 602.000000)">
                <g id="Group">
                    <g id="Group-2">
                        <g id="pair-of-mountains" transform="translate(235.000000, 56.000000)">
                            <path d="M21.0898403,19.2195868 L12.5092628,1.71403902 C12.2206445,1.12491817 11.5729826,0.745187059 10.8580392,0.745187059 C10.1430959,0.745187059 9.49543396,1.12491817 9.20681567,1.71403902 L0.62560933,19.2195868 C0.498592134,19.4787773 0.526259246,19.7758844 0.698549898,20.01357 C0.869582955,20.2501238 1.16323162,20.3921693 1.47763062,20.3921693 L10.8574104,20.3921693 L20.2371902,20.3921693 C20.5515892,20.3921693 20.8446091,20.2506897 21.0168998,20.01357 C21.190448,19.7758844 21.2174863,19.4787773 21.0898403,19.2195868 Z M14.4641958,10.265629 C14.2994507,10.3839059 14.0510755,10.4048449 13.8951336,10.2763814 C13.4524598,9.90853459 12.4243751,8.83159225 12.0980289,8.83159225 C11.6226576,8.83159225 11.3472441,9.49032104 10.8574104,9.49032104 C10.5492994,9.49032104 9.87774314,8.56334703 9.87774314,8.56334703 C9.71551326,8.40998319 9.45204689,8.38904422 9.2627787,8.51467806 L8.42899254,9.06644831 C8.25858828,9.17906603 8.02467543,9.17453868 7.85993035,9.05512994 C7.69518527,8.93628712 7.63922225,8.73199065 7.72473878,8.55768784 L10.3908423,3.10280229 C10.478874,2.9228403 10.6455055,2.74514199 10.8574104,2.74514199 C11.0686866,2.74514199 11.2365756,2.9228403 11.3239785,3.10280229 L14.5993873,9.7687528 C14.6842751,9.94192377 14.6295696,10.1456543 14.4641958,10.265629 Z" id="Shape"></path>
                        </g>
                    </g>
                </g>
            </g>
        </g>
    </g>
</svg>

<svg xmlns="http://www.w3.org/2000/svg" width="22" height="21" viewBox="0 0 22 21">
    <path fill="#9AA7B4" fill-rule="nonzero" d="M21.09 19.22L12.51 1.714c-.29-.59-.937-.969-1.652-.969-.715 0-1.363.38-1.651.969L.626 19.22c-.127.259-.1.556.073.794a.96.96 0 0 0 .779.378h18.76a.96.96 0 0 0 .779-.378.759.759 0 0 0 .073-.794zm-6.626-8.954c-.165.118-.413.139-.569.01-.443-.367-1.47-1.444-1.797-1.444-.475 0-.75.658-1.24.658-.309 0-.98-.927-.98-.927a.505.505 0 0 0-.615-.048l-.834.551a.509.509 0 0 1-.57-.01.394.394 0 0 1-.134-.498l2.666-5.455c.088-.18.255-.358.466-.358.212 0 .38.178.467.358l3.275 6.666a.394.394 0 0 1-.135.497z"/>
</svg>
